X:43
T:Ye Banks and Braes
C:arr. Carlo Minasi
M:6/8
L:1/8
B:Chappell's One Hundred Scotch Melodies
B:Arranged for the Concertina by Carlo Minasi
Q:"Andante  "3/8=90
Z:Peter Dunk 2012
K:G
!p!D|G2 (G A>GA)|([BG]dB) (A>GA)|\
(B>AG) (GED)|(DEG) [A2F2D2] ([B/G/][A/D/])|
%
[G2B,2] [GB,] ([AD]>[GB,][AD])|([BG]dB) ([AFD]GA)|\
([BG]>[AD][GB,]) ([GB,][EC][DB,])|\
([DB,][EC][GB,]) [G2B,2]||
%
[BG]|([d2B2] [ec] [dB]BG)|([d2B2] [ec] [dB]BG)|\
([dB]BG) ([dB]BG)|([ec][dB][BG]) H[A2F2D2] ([B/G/][A/D/])|
%
[G2B,2] [GB,] ([AD]>[GB,][AD])|([BG]dB) ([AFD]GA)|\
([BG]>[AD][GB,]) ([GB,][EC][DB,])|\
([DB,][EC][GB,]) [G2B,2]||

